src/components/atoms/Icon/icons/note-regular.svg

<svg viewBox="0 0 24 24" xmlns="http://www.w3.org/2000/svg"><path d="M14 2H6c-1.1 0-1.99.9-1.99 2L4 20c0 1.1.89 2 1.99 2H18c1.1 0 2-.9 2-2V8l-6-6zM8 17h5v2H8v-2zm0-3h8v2H8v-2zm0-3h8v2H8v-2zm5-2V3.5L18.5 9H13z" fill="currentColor"/></svg>

<?xml version="1.0" encoding="UTF-8"?>
<svg viewBox="0 0 24 24" version="1.1" xmlns="http://www.w3.org/2000/svg" xmlns:xlink="http://www.w3.org/1999/xlink">
    <path d="M14,2 L6,2 C4.9,2 4.01,2.9 4.01,4 L4,20 C4,21.1 4.89,22 5.99,22 L18,22 C19.1,22 20,21.1 20,20 L20,8 L14,2 Z M8,17 L13,17 L13,19 L8,19 L8,17 Z M8,14 L16,14 L16,16 L8,16 L8,14 Z M8,11 L16,11 L16,13 L8,13 L8,11 Z M13,9 L13,3.5 L18.5,9 L13,9 Z" id="path-1" fill="currentColor"></path>
</svg>
